svg/color/bos.svg

<svg height="32" viewBox="0 0 32 32" width="32" xmlns="http://www.w3.org/2000/svg"><g fill="none" fill-rule="evenodd"><circle cx="16" cy="16" fill="#00a8d6" r="16"/><path d="m14.4318182 18.9508197v-1.9180328h2.9545454c1.969697 0 2.9545455-.4918033 2.9545455-1.4754099v-5.1639344c0-.98360653-.9848485-1.47540981-2.9545455-1.47540981h-4.7272727v3.09836061h-2.6590909v-5.0163934h7.0909091c3.9393939 0 5.9090909 1.08196721 5.9090909 3.2459016v5.4590164c0 2.1639345-1.969697 3.2459017-5.9090909 3.2459017zm5.9090909 1.1803278h2.6590909v1.6229509c0 2.1639344-1.969697 3.2459016-5.9090909 3.2459016h-7.0909091v-11.5081967h7.0909091c.4158929 0 .8098323.0120592 1.1818182.0361776v1.921219c-.2691789-.0262425-.5646334-.0393638-.8863637-.0393638h-4.7272727v7.6721311h1.7727273 2.9545454c1.969697 0 2.9545455-.4918033 2.9545455-1.4754098z" fill="#fff"/></g></svg>

<svg xmlns="http://www.w3.org/2000/svg" width="32" height="32" viewBox="0 0 32 32">
  <g fill="none" fill-rule="evenodd">
    <circle cx="16" cy="16" r="16" fill="#00A8D6"/>
    <path fill="#FFF" d="M14.4318182,18.9508197 L14.4318182,17.0327869 L17.3863636,17.0327869 C19.3560606,17.0327869 20.3409091,16.5409836 20.3409091,15.557377 L20.3409091,10.3934426 C20.3409091,9.40983607 19.3560606,8.91803279 17.3863636,8.91803279 L12.6590909,8.91803279 L12.6590909,12.0163934 L10,12.0163934 L10,7 L17.0909091,7 C21.030303,7 23,8.08196721 23,10.2459016 L23,15.704918 C23,17.8688525 21.030303,18.9508197 17.0909091,18.9508197 L14.4318182,18.9508197 Z M20.3409091,20.1311475 L23,20.1311475 L23,21.7540984 C23,23.9180328 21.030303,25 17.0909091,25 L10,25 L10,13.4918033 L17.0909091,13.4918033 C17.506802,13.4918033 17.9007414,13.5038625 18.2727273,13.5279809 L18.2727273,15.4491999 C18.0035484,15.4229574 17.7080939,15.4098361 17.3863636,15.4098361 L12.6590909,15.4098361 L12.6590909,23.0819672 L14.4318182,23.0819672 L17.3863636,23.0819672 C19.3560606,23.0819672 20.3409091,22.5901639 20.3409091,21.6065574 L20.3409091,20.1311475 Z"/>
  </g>
</svg>
